X: 1
T: Elly's Waltz
C: David A Kaynor 2007
R: waltz
%D:2007
B: David A. Kaynor "Living Music and Dance" 2021
Z: 2022 John Chambers <jc:trillian.mit.edu>
S: Dave_Kaynors_Melodies_and_Harmonies.PDF
M: 3/4
L: 1/8
K: Em	% and G
# = = = = = = = = = =
EG |\
"Em"B4 Bc | B2 E2 FG | "Am"A4 AB | A4 FG |
"Am"A4 AB | A2 E2 FG | "D"AB AG ED | "Em"E4 EG |
"Em"B4 Bc | B2 E2 FG | "Am"A3 E AB | c6 |
"Am"e3 A Ac | "Em"B2 E2 FG | "D"AB AF ED | "Em"E4 |]
"(D7)"DC |\
"G"B,D D2 GB | d4 DB, | "Am"CE E2 Ac | e6 |
"D"DF FA Ad | d6 | DF AB cd | "G"c2 B2 "D7"DC |
"G"B,D D2 GB | d4 DB, | "Am"CE E2 Ac | e6 |
"D"d2 fe dc | "Am"c2 A2 DF | "D"A3 G BA | "G"G4 |]
# = = = = = = = = = =
%%begintext align
%%endtext
